actions/22/map-flat.svg

<svg xmlns="http://www.w3.org/2000/svg" viewBox="0 0 22 22">
  <defs id="defs3051">
<style type="text/css" id="current-color-scheme">.ColorScheme-Text {color:#fcfcfc;}</style>
  </defs>
 <path 
    style="fill:currentColor;fill-opacity:1;stroke:none" 
    d="m 3,6 c 0,3 0,7 0,10 0,3 3,3 3,3 h 10 c 0,0 3,0 3,-3 C 19,13 19,9 19,6 19,3 16,3 16,3 H 6 C 6,3 3,3 3,6 Z M 4,6 C 4,4 6,4 6,4 H 8 V 8 H 4 Z M 9,4 h 4 V 8 H 9 Z m 5,0 h 2 c 0,0 2,0 2,2 0,2 0,2 0,2 H 14 Z M 4,9 h 4 v 4 H 4 Z m 5,0 h 4 v 4 H 9 Z m 5,0 h 4 v 4 H 14 Z M 4,14 h 4 v 4 H 6 c 0,0 -2,0 -2,-2 z m 5,0 h 4 v 4 H 9 Z m 5,0 h 4 c 0,0 0,0 0,2 0,2 -2,2 -2,2 h -2 z"
    class="ColorScheme-Text"
    />  
</svg>

<svg xmlns="http://www.w3.org/2000/svg" viewBox="0 0 22 22">
  <defs id="defs3051">
    <style type="text/css" id="current-color-scheme">
      .ColorScheme-Text {
        color:#eff0f1;
      }
      </style>
  </defs>
 <path 
    style="fill:currentColor;fill-opacity:1;stroke:none" 
    d="M 3 3 L 3 19 L 19 19 L 19 3 L 3 3 z M 4 4 L 8 4 L 8 8 L 4 8 L 4 4 z M 9 4 L 13 4 L 13 8 L 9 8 L 9 4 z M 14 4 L 18 4 L 18 8 L 14 8 L 14 4 z M 4 9 L 8 9 L 8 13 L 4 13 L 4 9 z M 9 9 L 13 9 L 13 13 L 9 13 L 9 9 z M 14 9 L 18 9 L 18 13 L 14 13 L 14 9 z M 4 14 L 8 14 L 8 18 L 4 18 L 4 14 z M 9 14 L 13 14 L 13 18 L 9 18 L 9 14 z M 14 14 L 18 14 L 18 18 L 14 18 L 14 14 z "
    class="ColorScheme-Text"
    />  
</svg>
